!!!!SEGMENT: pl-wtm--r-325-m--004_moniuszko-stanislaw--kontredanse-na-4-rece.krn
!!!cenid: 18xx:3030
!!!COM: Moniuszko, Stanisław
!!!COM-rismid: pe30008351
!!!CDT: 1819/05/05-1872/06/04
!!!CNT: Polish
!!!OTL: Kontredanse na 4 ręce
!!!PDT:
!!!AGN: Secular
!!!SMS-siglum: PL-Wtm
!!!SMS-shelfmark: R 325/M
!!!SMS-shelfwork: 004 G
!!!SMS-variant:
!!!SMS-altvar:
!!!NIFC-rismid: 1001094321
!!!URL-scan: http://repozytorium.nifc.pl/skany/pl-wtm-nut--r325m
!!!ONB-nifc: UWAGA: w zbiorze 6 kontredansów, numeracja plików zgodna ze źródłową
**kern	**kern	**dynam	**kern	**kern	**dynam
*part2	*part2	*part3	*part1	*part1	*part1
*staff4	*staff3	*	*staff2	*staff1	*
*clefF4	*clefF4	*	*clefG2	*clefG2	*
*>[A,B,C,B,D,B]	*>[A,B,C,B,D,B]	*	*>[A,B,C,B,D,B]	*>[A,B,C,B,D,B]	*
*>A	*>A	*	*>A	*>A	*
*k[]	*k[]	*	*k[]	*k[]	*
*M2/4	*M2/4	*	*M2/4	*M2/4	*
*	*	*	*	*8va	*
*all\left or middle or right	*all\left or middle or right	*	*all\left or middle or right	*all\left or middle or right	*
=1	=1	=1	=1	=1	=1
!	!	!	!	!LO:TX:t=P:problem:all\middle or right:global	!
!	!	!	!	!	!LO:DY:b:color=blue
!	!	!LO:DY:b:color=blue	!	!	!
8AA 8AAA/	8e 8A 8E\	f	8aa 8ee 8cc#X 8a\	8aaa 8eee 8ccc#X 8aa\	f
8r	8r	.	8r	8r	.
8BB-X 8BBB-X/	8d 8F 8D\	.	8aa 8dd 8a\	8ggg#X 8ddd 8gg#X\	.
8r	8r	.	8r	8r	.
=2	=2	=2	=2	=2	=2
8BBn 8BBBn/	8d 8G 8D\	.	8ff 8dd 8g/	8gggn 8fff 8ddd 8ggn\	.
8r	8r	.	8r	8r	.
!	!	!	!	!LO:TX:t=8:color=blue	!
8GG 8GGG/	8d 8B 8G\	.	8dd 8b 8g/	8ggg 8ddd 8bb 8gg\	.
*	*	*	*	*X8va	*
8r	8r	.	8r	8r	.
!!LO:TX:t=P:problem:wężowate segno na kresce:color=red
=3!|:	=3!|:	=3!|:	=3!|:	=3!|:	=3!|:
*>B	*>B	*	*>B	*>B	*
*	*	*	*Xtuplet	*	*
!	!	!	!	!LO:TX:a:t=A=:color=red	!
!	!	!	!	!LO:TUP:a	!
8C/	8r	p	(<24g/LL	(24gg^\LL	p
.	.	.	24a/	24aa\	.
.	.	.	24b/JJ	24bb\JJ	.
*	*tremolo	*	*	*	*
8r	8eL 8c 8G\	.	8cc\L)	8ccc\L)	.
4r	8e 8c 8G\	.	8cc\	8ccc\	.
.	8eJ 8c 8G\	.	8cc\J	8ccc\J	.
*	*Xtremolo	*	*	*	*
=4	=4	=4	=4	=4	=4
*	*rep	*	*	*	*
*	*	*	*	*Xtuplet	*
!	!	!	!LO:TUP:b:problem:klamra łukowa	!	!
8C/	8r	.	24cc/LL	(24ccc^\LL	.
.	.	.	24b/	24bb\	.
.	.	.	24a/JJ	24aa\JJ	.
*	*tremolo	*	*	*	*
8r	8eL 8c 8G\	.	8g'/L	8gg'\L)	.
4r	8e 8c 8G\	.	8g'/	8gg'\	.
.	8eJ 8c 8G\	.	8g'/J	8gg'\J	.
*	*Xtremolo	*	*	*	*
*	*Xrep	*	*	*	*
=5	=5	=5	=5	=5	=5
4r@	8F'\L	.	8aL 8f'/	8aaL 8ff'\	.
.	8D'\	.	8dd 8a 8f'/	8ddd 8ff'\	.
8r@	8G'\J	.	8cc 8e'/	8ccc 8ee'\	.
8GG/	8r	.	8bJ 8f 8d'/	8bbJ 8dd'\	.
=6	=6	=6	=6	=6	=6
8C 8CC/	8r	.	(4cc 4g@ 4e@/	(4ccc 4ee\	.
8r	8c 8G 8E@\	.	.	.	.
8GG 8GGG/	8r	.	8g/)	8ggg 8gg\)	.
8r	8d 8B 8G\	.	8r	8r	.
!!LO:LB:g=original
=7	=7	=7	=7	=7	=7
!	!	!	!LO:TUP:b:problem:klamra łukowa	!	!
8C/	8r	.	24g/LL	(24gg\LL	.
.	.	.	24a/	24aa\	.
.	.	.	24b/JJ	24bb\JJ	.
8r	8eL 8c 8G'\	.	8cc'\L	8ccc\L)	.
4r	8c 8G 8E'\	.	8cc'\	8ccc'\	.
.	8eJ 8c 8G'\	.	8cc'\J	8ccc'\J	.
=8	=8	=8	=8	=8	=8
!	!	!	!LO:TUP:b:problem:klamra łukowa	!	!
8C/	8r	.	24cc/LL	(24ccc\LL	.
.	.	.	24b/	24bb\	.
.	.	.	24a/JJ	24aa\JJ	.
8r	8cL 8G 8E'\	.	8g/L	8gg'\L)	.
4r	8cJ 8G 8E'\	.	8g/	8gg'\	.
*	*Xtuplet	*	*	*	*
!	!LO:S:color=blue	!	!	!	!
.	(24C@\LL	.	8g/J	8gg'\J	.
.	24D@\	.	.	.	.
.	24E@\JJ	.	.	.	.
=9	=9	=9	=9	=9	=9
8r@	8F'\)	.	8aL 8g'/	8aaL 8gg'\	.
*Xtuplet	*	*	*	*	*
!LO:TUP:b:problem:klamra łukowa	!	!	!	!	!
24DD^/LL	(24D^\LL	.	8a 8f'/	8ddd 8ff'\	.
24EE/	24E\	.	.	.	.
24FF/JJ	24F\JJ	.	.	.	.
8GG/	8G\)	.	8cc 8e/	8ccc 8ee'\	.
8GG/	8G'\	.	8bJ 8f/	8bbJ 8dd'\	.
=10	=10	=10	=10	=10	=10
8C 8CC@/	8c 8G'\	.	8cc 8e/	8ccc 8ee\	.
!	!	!	!	!LO:TX:a:t==B:color=red	!
!LO:TX:t=P:problem:brak 8r	!	!	!	!LO:TX:t=P:problem:podwójna kreska taktowa:global	!
8ryy	8r	.	8r	8r	.
=||	=||	=||	=||	=||	=||
*>C	*>C	*	*>C	*>C	*
*	*	*	*	*8va	*
!	!LO:TX:b:t=(x):note=ostateczna wersja t. 10-12 zapisana u dołu strony za pomocą odnośnika	!	!	!	!
8AA/L	8eL 8c 8A^\	ff	16ee\LL	16eeeLL 16ccc\	ff
.	.	.	16ff\	16fff 16ddd\	.
8EE/J	8E^\J	.	16ee\	16eee 16ccc\	.
.	.	.	16ff\JJ	16fffJJ 16ddd\	.
=11	=11	=11	=11	=11	=11
!	!	!	!LO:TX:t=Col 1mo	!	!
8GG/L	4e 4c 4G^\	.	16eeyyLL 16ccyy\	16eeeLL 16ccc\	.
.	.	.	16ffyy 16ddyy\	16fff 16ddd\	.
8CJ 8CC/	.	.	16eeyy 16ccyy\	16eee 16ccc\	.
.	.	.	16ffyyJJ 16ddyy\	16fffJJ 16ddd\	.
8AA/L	8eL 8c 8A^\	.	16eeyyLL 16ccyy\	16eeeLL 16ccc\	.
.	.	.	16ffyy 16ddyy\	16fff 16ddd\	.
8EE/J	8E^\J	.	16eeyy 16ccyy\	16eee 16ccc\	.
.	.	.	16ffyyJJ 16ddyy\	16fffJJ 16ddd\	.
=12	=12	=12	=12	=12	=12
*	*	*	*	*rep	*
8GG/L	8e 8c 8G\	.	16eeyyLL 16ccyy\	16eeeLL 16ccc\	.
.	.	.	16ffyy 16ddyy\	16fff 16ddd\	.
16CL 16CC/	16c\LL	.	16eeyy 16ccyy\	16eee 16ccc\	.
16DJJ 16DD/	16d\JJ	.	16ffyyJJ 16ddyy\	16fffJJ 16ddd\	.
8EL 8EE/	8e\L	.	16eeyyLL 16ccyy\	16eeeLL 16ccc\	.
.	.	.	16ffyy 16ddyy\	16fff 16ddd\	.
8CJ 8CC/	8c\J	.	16eeyy 16ccyy\	16eee 16ccc\	.
.	.	.	16ffyyJJ 16ddyy\	16fffJJ 16ddd\	.
*	*	*	*	*Xrep	*
!!LO:LB:g=original
=13	=13	=13	=13	=13	=13
8AAL 8AAA/	(8A^\L	.	(8eeL 8cc^\	(8eeeL 8ccc^\	.
16BB/L	16B\L	.	16ddL 16b\	16dddL 16bb\	.
16C/JJ	16c\JJ	.	16ccJJ 16a\	16cccJJ 16aa\	.
8D/L	8d\L)	.	8bL 8g'/)	8bbL 8gg'/)	.
8DJ 8DD/	8dJ 8c 8A\	.	8ccJ 8a 8f#X/	8aaJ 8ff#X 8dd/	.
=14	=14	=14	=14	=14	=14
4GG 4GGG/	4d 4B 4G\	.	4b 4g/	4gg 4dd/	.
*	*	*	*	*X8va	*
!LO:TX:t=P:problem:fermata:color=blue	!LO:TX:t=P:problem:fermata:color=blue	!	!LO:TX:t=P:problem:fermata:color=blue	!LO:TX:t=P:problem:fermata:color=blue	!
4r;	4r;	.	4r;	4r;	.
=15	=15	=15	=15	=15	=15
4r@	4r@	.	4r@	4r@	.
*	*	*	*	*8va	*
!	!	!LO:DY:b:color=blue	!	!	!
8GG/	8r	pp	(16g\LL	(16gg\LL	pp
.	.	.	16b\	16bb\	.
8r	8d 8B 8G\	.	16dd\	16ddd\	.
.	.	.	16ff\JJ)	16fff\JJ	.
=16	=16	=16	=16	=16	=16
!	!	!	!LO:TX:t=P:problem:t. 16-19 – brak odnośnika do prawej ręki	!	!
8C/	8r	.	8eeyy^<\L	8eee^<\L)	.
8r	8e 8c 8G\	.	8ggyy\J	8ggg\J	.
8GG/	8r	.	(yy16gyy\LL	(16gg\LL	.
.	.	.	16byy\	16bb\	.
8r	8d 8B 8G\	.	16ddyy\	16ddd\	.
.	.	.	16ffyy\JJ	16fff\JJ	.
=17	=17	=17	=17	=17	=17
8C/	8r	.	8eeyy\L)yy	8eee\L)	.
.	.	.	8qaayy/	8qaaa/	.
8r	8e 8c 8G\	.	8ggyy^<\J	8ggg^<\J	.
8GG/	8r	.	16ff#Xyy\LL	16fff#X\LL	<
.	.	.	16ggyy\	16ggg\	.
8r	8d 8B 8G\	.	16aayy\	16aaa\	.
.	.	.	16bbyy\JJ	16bbb\JJ	[
=18	=18	=18	=18	=18	=18
8C/	8r	.	8cccyy^\L	8cccc^\L	.
8r	8e 8c 8G\	.	(yy16bbyy\L	(16bbb\L	.
.	.	.	16aayy\JJ)yy	16aaa\JJ)	.
!	!	!	!LO:TUP:a:problem:klamra łukowa	!LO:TUP:a:problem:klamra łukowa	!
8GG/	8r	.	24ggyy\LL	24ggg\LL	.
.	.	.	24aayy\	24aaa\	.
.	.	.	24ggyy\	24ggg\	.
8r	8d 8B 8G\	.	(yy16ffyy\	(16fff\	.
.	.	.	16ddyy\JJ)yy	16ddd\JJ)	.
=19	=19	=19	=19	=19	=19
8C/L	8r	.	(yy8eeyy\L	(8eee\L	.
8GG/	8c 8G 8E\	.	8ccyy\J)yy	8ccc\J)	.
8BB/	8r	.	(yy16gyy\LL	(16gg\LL	.
.	.	.	16byy\	16bb\	.
8GG/J	8d 8B 8G\	.	16ddyy\	16ddd\	.
.	.	.	16ffyy\JJ)yy	16fff\JJ)	.
*	*	*	*	*X8va	*
!!LO:LB:g=original
=20	=20	=20	=20	=20	=20
*rep	*rep	*	*	*8va	*
!	!	!	!	!LO:TX:t=Col 1mo	!
8C/L	8r	.	8ee'\L	8eeeyy'\L	.
.	.	.	(8qaa/	(yy8qaaayy/	.
8GG/	8c 8G 8E\	.	8gg^\J)	8gggyy^\J)yy	.
8BB/	8r	.	(16g\LL	(yy16ggyy\LL	.
.	.	.	16b\	16bbyy\	.
8GG/J	8d 8B 8G\	.	16dd\	16dddyy\	.
.	.	.	16ff\JJ	16fffyy\JJ	.
*Xrep	*Xrep	*	*	*	*
=21	=21	=21	=21	=21	=21
*	*^	*	*^	*	*
8C/	8c'\	8r	.	8ee\)	8r	8eee'\)	.
8BB-XL 8BBB-X^/	8cL 8B-X 8C^\	8ryy	f	8r	8ggL 8ee 8cc 8g^\	8ggg 8eee 8ccc^\	f
8AA 8AAA^/	8c 8A 8C^\	4ryy	.	(16ff#X^/LL	8dd#X 8cc\	16fff#XLL 16ddd#X\	.
.	.	.	.	16gg/JJ)	.	16ggg\	.
!	!	!	!	!LO:SIC:v:n=2:s=8ddn	!	!	!
8AA-XJ 8AAA-X^/	8cJ 8A-X 8C^\	.	.	(16ffn^/LL	8dd#J 8cc\	16fffn 16dddn\	.
.	.	.	.	16gg/JJ)	.	16ggg\JJ	.
*	*v	*v	*	*	*	*	*
*	*	*	*v	*v	*	*
=22	=22	=22	=22	=22	=22
8GG 8GGG/	8r	.	8ee 8cc\	8eee 8ccc\	.
!	!	!	!LO:TX:t=P:problem:mixed beam	!LO:TX:t=P:problem:mixed beam	!
8r	8c 8G 8E\	.	(16g/LL	16gg/LL	.
.	.	.	16ee\JJ	16eee\JJ	.
8GG/	8r	.	16dd\LL	16ddd\LL	.
.	.	.	16cc\	16ccc\	.
8r	8e 8c 8G\	.	16b\	16bb\	.
.	.	.	16cc\JJ)	16ccc\JJ	.
*	*	*	*	*X8va	*
=23	=23	=23	=23	=23	=23
!	!	!	!LO:TX:t=P:problem:brak 4r	!	!
8AA/	8r	.	4ryy	8dd 8cc\	.
8r	8dL 8c [8G^<\	.	.	(32dd^\LLL	.
.	.	.	.	32cc\	.
.	.	.	.	32b\	.
.	.	.	.	32a\JJJ	.
8GG/	8dJ 8B 8G\]	.	8b 8g/	8g/)	.
(32GG/LLL	(32G\LLL	.	8r	8r	.
32FF/	32F\	.	.	.	.
32EE/	32E\	.	.	.	.
32DD/JJJ)	32D\JJJ)	.	.	.	.
!!LO:PB:g=original
=24||	=24||	=24||	=24||	=24||	=24||
*>D	*>D	*	*>D	*>D	*
*k[b-]	*k[b-]	*	*k[b-]	*k[b-]	*
!LO:TX:t=P:problem:zmiana tonacji nieoznaczona	!LO:TX:t=P:problem:zmiana tonacji nieoznaczona	!	!	!	!
4r	8cL 8F'\	ff	8ccL 8a 8f/	8cccL 8aa 8ff'\	ff
!	!LO:TX:t=P:problem:główki nut niezapisane	!	!LO:TX:t=P:problem:główki nut niezapisane	!LO:TX:t=P:problem:główki nut niezapisane	!
.	16cL 16F'\	.	16ccL 16a 16f/	16cccL 16aa 16ff'\	.
!	!LO:TX:t=P:problem:główki nut niezapisane	!	!LO:TX:t=P:problem:główki nut niezapisane	!LO:TX:t=P:problem:główki nut niezapisane	!
.	16cJJ 16F'\	.	16ccJJ 16a 16f/	16cccJJ 16aa 16ff'\	.
=25	=25	=25	=25	=25	=25
4FF 4FFF/	4c 4A 4F^\	sf	(16ddLL 16f/	(16dddLL 16ff^\	sf
.	.	.	16cc/	16ccc\	.
.	.	.	16a/	16aa\	.
.	.	.	16f/JJ	16ff\JJ	.
!	!LO:TX:t=P:problem:główki nut niezapisane	!	!	!	!
8FF/L	8cL 8A 8F\	.	8ffL 8a 8f'\)	8fff'\L)	.
!	!LO:TX:t=P:problem:główki nut niezapisane	!	!	!	!
8FF/J	8cJ 8A 8F\	.	8ffJ 8a 8f'\	8fff'\J	.
=26	=26	=26	=26	=26	=26
.	.	.	.	8qggg/	.
*	*	*	*^	*	*
4C 4CC/	4c 4B- 4G^\	.	(8ff^/L	4b- 4g\	(8fff\L	.
.	.	.	8ee/J)	.	8eee\J)	.
8C/L	8cL 8G\	.	8eeL 8b- 8g/	4ryy	8eeeL 8bb- 8gg\	.
!	!LO:TX:t=P:problem:główki nut niezapisane	!	!LO:TX:t=P:problem:główki nut niezapisane	!	!LO:TX:t=P:problem:główki nut niezapisane	!
16C/L	16cL 16G\	.	16eeL 16b- 16g/	.	16eeeL 16bb- 16gg\	.
!	!LO:TX:t=P:problem:główki nut niezapisane	!	!LO:TX:t=P:problem:główki nut niezapisane	!	!LO:TX:t=P:problem:główki nut niezapisane	!
16C/JJ	16cJJ 16G\	.	16eeJJ 16b- 16g/	.	16eeeJJ 16bb- 16gg\	.
*	*	*	*v	*v	*	*
=27	=27	=27	=27	=27	=27
4C 4CC/	4e 4B- 4G\	sff	16eeLL 16b- 16g/	16eeeLL 16bb- 16gg\	sf
.	.	.	16dd/	16ddd\	.
.	.	.	16b-/	16bb-\	.
.	.	.	16g/JJ	16gg\JJ	.
8C/L	8dL 8B- 8G\	.	4r	8dd\L	.
8C/J	8eJ 8B- 8G\	.	.	8ee\J	.
=28	=28	=28	=28	=28	=28
.	8qe/	.	.	8qee/	.
4F 4FF/	(8dL 8A\	.	4r	(8dd\L	.
.	8c\J)	.	.	8cc\J)	.
*	*	*	*	*8va	*
!	!	!	!	!LO:TX:t=Col 2do	!
4r	8cL 8A 8F\	.	8ccL 8a 8f/	8cccyyL 8aayy 8ffyy/	.
!	!LO:TX:t=P:problem:główki nut niezapisane	!	!LO:TX:t=P:problem:główki nut niezapisane	!	!
.	16cL 16A 16F\	.	16ccL 16a 16f/	16cccyyL 16aayy 16ffyy/	.
!	!LO:TX:t=P:problem:główki nut niezapisane	!	!LO:TX:t=P:problem:główki nut niezapisane	!	!
.	16cJJ 16A 16F\	.	16ccJJ 16a 16f/	16cccyyJJ 16aayy 16ffyy/	.
=29	=29	=29	=29	=29	=29
*	*^	*	*	*	*
4FF 4FFF/	4c 4A 4F\	4ryy	sff	(16ddLL 16a 16f/	(yy16dddyyLL 16aayy 16ffyy/	.
.	.	.	.	16cc/	16cccyy/	.
.	.	.	.	16a/	16aayy/	.
.	.	.	.	16f/JJ	16ffyy/JJ	.
8FF/L	8A/L	8F\L	.	8aa'\L)	8aaayy'\L)yy	.
16GG/L	16B-/L	8F\J	.	8ff\J	8fffyy\J	.
16AA/JJ	16c/JJ	.	.	.	.	.
*	*v	*v	*	*	*	*
*	*	*	*	*X8va	*
!!LO:LB:g=original
=30	=30	=30	=30	=30	=30
!	!	!	!	!LO:TX:t=Col 1mo	!
.	.	.	(8qff 8qdd/	(yy8qffyy 8qddyy/	.
8BB-/	8F\L	.	8eeL 8cc\)	8eeyyL 8ccyy\)yy	.
8r	8dJ 8B- 8F\	.	(16ddL 16b-\	(yy16ddyyL 16b-yy\	<
.	.	.	16eeJJ 16cc\	16eeyyJJ 16ccyy\	.
8GG/	8r	.	8ffL 8dd\	8ffyyL 8ddyy\	[ >
8r	8f 8B- 8F\	.	16eeL 16cc\	16eeyyL 16ccyy\	]
.	.	.	16ddJJ 16b-\	16ddyyJJ 16b-yy\	.
=31	=31	=31	=31	=31	=31
8C/	8c'\	.	8ccL 8a'/)	8ccyyL 8ayy'/)yy	.
8r	(16dLL 16B-^\	.	(16b-L 16g^/	(yy16b-yyL 16gyy^/	.
.	16cJJ 16A\	.	16ccJJ 16a/)	16ccyyJJ 16ayy/)yy	.
8r	8B-L 8G'\)	.	8ddL 8b-/	8ddyy 8b-yy/	.
8C 8CC/	8cJ 8B- 8G\	sf	8ccJ 8b- 8g 8e/	8e/	.
=32	=32	=32	=32	=32	=32
8C 8FF/	8c 8A 8F\	.	8f/	8f/	.
8r	8r	.	8r	8r	.
8FF 8FFF/	8c 8A 8F\	sff	8cc 8a 8f/	8cc 8a 8f/	sf
!	!LO:TX:a:t=DSegno:color=red	!	!	!	!
8r	8r	.	8r	8r	.
==	==	==	==	==	==
*-	*-	*-	*-	*-	*-
!!!system-decoration: ([s1,s2][s3,s4])
!!!ENC: Katarzyna Serwa
!!!END: 2021-09-07
!!!ENC: Kamil Watkowski
!!!END: 2021-09-16
!!!RDF**kern: > = above
!!!RDF**kern: < = below
!!!RDF**kern: @ = marked note, color=blue
